svg/color/euler.svg

<?xml version="1.0" encoding="UTF-8" ?>
<!DOCTYPE svg PUBLIC "-//W3C//DTD SVG 1.1//EN" "http://www.w3.org/Graphics/SVG/1.1/DTD/svg11.dtd">
<svg width="249pt" height="250pt" viewBox="0 0 249 250" version="1.1" xmlns="http://www.w3.org/2000/svg">
<g id="#fcfdfeff">
<path fill="#fcfdfe" opacity="1.00" d=" M 0.00 0.00 L 249.00 0.00 L 249.00 250.00 L 0.00 250.00 L 0.00 0.00 M 118.40 24.56 C 98.03 25.65 78.63 34.17 62.63 46.57 C 24.14 76.68 14.13 136.05 41.00 177.01 C 65.61 218.44 122.08 236.12 165.90 215.86 C 207.29 198.46 233.28 150.90 224.33 106.68 C 216.77 57.59 167.94 19.24 118.40 24.56 Z" />
<path fill="#fcfdfe" opacity="1.00" d=" M 139.39 60.47 C 157.00 55.72 173.56 70.95 174.76 88.09 C 173.54 97.74 184.34 99.57 188.74 106.26 C 199.33 116.30 197.17 133.61 187.28 143.28 C 177.77 152.53 165.18 158.23 152.41 161.41 C 140.00 176.70 121.04 191.67 100.07 185.93 C 85.50 181.45 80.66 165.74 78.64 152.33 C 66.11 145.62 53.77 130.81 59.88 115.91 C 66.20 98.26 85.49 90.87 101.95 85.94 C 111.84 74.53 124.01 63.43 139.39 60.47 M 142.40 67.48 C 129.25 69.87 118.19 78.68 110.03 88.93 C 114.77 95.99 119.19 103.28 124.01 110.28 C 134.77 98.23 143.77 84.54 154.00 72.01 C 158.21 66.36 145.23 67.16 142.40 67.48 M 160.26 74.36 C 149.55 86.96 139.57 100.44 129.99 113.92 C 140.95 118.41 152.67 120.86 163.86 124.74 C 169.11 109.02 171.92 86.42 160.26 74.36 M 105.64 93.08 C 100.98 94.16 96.36 95.45 91.94 97.28 C 98.87 101.87 107.14 105.14 115.01 108.10 C 112.14 102.94 108.86 98.02 105.64 93.08 M 83.31 101.31 C 71.48 106.08 60.72 121.01 68.75 133.24 C 78.91 148.14 97.83 153.56 114.84 155.91 C 116.73 143.31 119.23 130.79 120.95 118.17 C 108.35 112.81 96.01 105.42 83.31 101.31 M 176.08 104.98 C 173.63 121.03 168.91 137.17 160.01 151.11 C 169.66 147.88 178.98 142.35 184.96 133.97 C 192.13 124.21 186.28 109.88 176.08 104.98 M 131.79 121.17 C 137.35 131.53 144.25 141.34 150.83 151.04 C 154.55 144.52 160.66 137.99 160.90 130.21 C 151.30 126.91 141.45 124.32 131.79 121.17 M 126.26 124.88 C 124.01 135.13 122.20 145.54 120.98 155.95 C 128.97 155.94 137.16 156.69 145.02 154.83 C 140.05 144.29 132.32 134.91 126.26 124.88 M 87.06 156.86 C 88.76 167.41 95.01 179.28 107.07 180.00 C 119.45 179.83 133.01 173.10 140.12 163.13 C 122.28 165.83 103.99 162.61 87.06 156.86 Z" />
</g>
<g id="#0c64beff">
<path fill="#0c64be" opacity="1.00" d=" M 118.40 24.56 C 167.94 19.24 216.77 57.59 224.33 106.68 C 233.28 150.90 207.29 198.46 165.90 215.86 C 122.08 236.12 65.61 218.44 41.00 177.01 C 14.13 136.05 24.14 76.68 62.63 46.57 C 78.63 34.17 98.03 25.65 118.40 24.56 M 139.39 60.47 C 124.01 63.43 111.84 74.53 101.95 85.94 C 85.49 90.87 66.20 98.26 59.88 115.91 C 53.77 130.81 66.11 145.62 78.64 152.33 C 80.66 165.74 85.50 181.45 100.07 185.93 C 121.04 191.67 140.00 176.70 152.41 161.41 C 165.18 158.23 177.77 152.53 187.28 143.28 C 197.17 133.61 199.33 116.30 188.74 106.26 C 184.34 99.57 173.54 97.74 174.76 88.09 C 173.56 70.95 157.00 55.72 139.39 60.47 Z" />
<path fill="#0c64be" opacity="1.00" d=" M 142.40 67.48 C 145.23 67.16 158.21 66.36 154.00 72.01 C 143.77 84.54 134.77 98.23 124.01 110.28 C 119.19 103.28 114.77 95.99 110.03 88.93 C 118.19 78.68 129.25 69.87 142.40 67.48 Z" />
<path fill="#0c64be" opacity="1.00" d=" M 160.26 74.36 C 171.92 86.42 169.11 109.02 163.86 124.74 C 152.67 120.86 140.95 118.41 129.99 113.92 C 139.57 100.44 149.55 86.96 160.26 74.36 Z" />
<path fill="#0c64be" opacity="1.00" d=" M 105.64 93.08 C 108.86 98.02 112.14 102.94 115.01 108.10 C 107.14 105.14 98.87 101.87 91.94 97.28 C 96.36 95.45 100.98 94.16 105.64 93.08 Z" />
<path fill="#0c64be" opacity="1.00" d=" M 83.31 101.31 C 96.01 105.42 108.35 112.81 120.95 118.17 C 119.23 130.79 116.73 143.31 114.84 155.91 C 97.83 153.56 78.91 148.14 68.75 133.24 C 60.72 121.01 71.48 106.08 83.31 101.31 Z" />
<path fill="#0c64be" opacity="1.00" d=" M 176.08 104.98 C 186.28 109.88 192.13 124.21 184.96 133.97 C 178.98 142.35 169.66 147.88 160.01 151.11 C 168.91 137.17 173.63 121.03 176.08 104.98 Z" />
<path fill="#0c64be" opacity="1.00" d=" M 131.79 121.17 C 141.45 124.32 151.30 126.91 160.90 130.21 C 160.66 137.99 154.55 144.52 150.83 151.04 C 144.25 141.34 137.35 131.53 131.79 121.17 Z" />
<path fill="#0c64be" opacity="1.00" d=" M 126.26 124.88 C 132.32 134.91 140.05 144.29 145.02 154.83 C 137.16 156.69 128.97 155.94 120.98 155.95 C 122.20 145.54 124.01 135.13 126.26 124.88 Z" />
<path fill="#0c64be" opacity="1.00" d=" M 87.06 156.86 C 103.99 162.61 122.28 165.83 140.12 163.13 C 133.01 173.10 119.45 179.83 107.07 180.00 C 95.01 179.28 88.76 167.41 87.06 156.86 Z" />
</g>
</svg>

<?xml version="1.0" encoding="utf-8"?>
<!-- Generator: Adobe Illustrator 26.0.3, SVG Export Plug-In . SVG Version: 6.00 Build 0)  -->
<svg version="1.1" id="Layer_1" xmlns="http://www.w3.org/2000/svg" xmlns:xlink="http://www.w3.org/1999/xlink" x="0px" y="0px"
	 viewBox="0 0 249 250" style="enable-background:new 0 0 249 250;" xml:space="preserve">
<style type="text/css">
	.st0{fill:#FCFDFE;}
	.st1{fill:#0C64BE;}
</style>
<g id="_x23_fcfdfeff">
	<path class="st0" d="M139.4,60.5c17.6-4.8,34.2,10.5,35.4,27.6c-1.2,9.7,9.6,11.5,14,18.2c10.6,10,8.4,27.3-1.5,37
		c-9.5,9.2-22.1,14.9-34.9,18.1c-12.4,15.3-31.4,30.3-52.3,24.5c-14.6-4.5-19.4-20.2-21.4-33.6c-12.5-6.7-24.9-21.5-18.8-36.4
		c6.3-17.7,25.6-25,42.1-30C111.8,74.5,124,63.4,139.4,60.5 M142.4,67.5c-13.1,2.4-24.2,11.2-32.4,21.4c4.7,7.1,9.2,14.3,14,21.3
		c10.8-12,19.8-25.7,30-38.3C158.2,66.4,145.2,67.2,142.4,67.5 M160.3,74.4c-10.7,12.6-20.7,26.1-30.3,39.6
		c11,4.5,22.7,6.9,33.9,10.8C169.1,109,171.9,86.4,160.3,74.4 M105.6,93.1c-4.7,1.1-9.3,2.4-13.7,4.2c6.9,4.6,15.2,7.9,23.1,10.8
		C112.1,102.9,108.9,98,105.6,93.1 M83.3,101.3c-11.8,4.8-22.6,19.7-14.6,31.9c10.2,14.9,29.1,20.3,46.1,22.7
		c1.9-12.6,4.4-25.1,6.1-37.7C108.3,112.8,96,105.4,83.3,101.3 M176.1,105c-2.4,16-7.2,32.2-16.1,46.1c9.7-3.2,19-8.8,25-17.1
		C192.1,124.2,186.3,109.9,176.1,105 M131.8,121.2c5.6,10.4,12.5,20.2,19,29.9c3.7-6.5,9.8-13,10.1-20.8
		C151.3,126.9,141.4,124.3,131.8,121.2 M126.3,124.9c-2.2,10.3-4.1,20.7-5.3,31.1c8,0,16.2,0.7,24-1.1
		C140.1,144.3,132.3,134.9,126.3,124.9 M87.1,156.9c1.7,10.6,8,22.4,20,23.1c12.4-0.2,25.9-6.9,33-16.9
		C122.3,165.8,104,162.6,87.1,156.9z"/>
</g>
<g id="_x23_0c64beff">
	<path class="st1" d="M118.4,24.6c49.5-5.3,98.4,33,105.9,82.1c8.9,44.2-17,91.8-58.4,109.2C122.1,236.1,65.6,218.4,41,177
		c-26.9-41-16.9-100.3,21.6-130.4C78.6,34.2,98,25.6,118.4,24.6 M139.4,60.5c-15.4,3-27.6,14.1-37.4,25.5
		c-16.5,4.9-35.8,12.3-42.1,30c-6.1,14.9,6.2,29.7,18.8,36.4c2,13.4,6.9,29.1,21.4,33.6c21,5.7,39.9-9.2,52.3-24.5
		c12.8-3.2,25.4-8.9,34.9-18.1c9.9-9.7,12.1-27,1.5-37c-4.4-6.7-15.2-8.5-14-18.2C173.6,70.9,157,55.7,139.4,60.5z"/>
	<path class="st1" d="M142.4,67.5c2.8-0.3,15.8-1.1,11.6,4.5c-10.2,12.5-19.2,26.2-30,38.3c-4.8-7-9.2-14.3-14-21.3
		C118.2,78.7,129.2,69.9,142.4,67.5z"/>
	<path class="st1" d="M160.3,74.4c11.7,12.1,8.9,34.7,3.6,50.4c-11.2-3.9-22.9-6.3-33.9-10.8C139.6,100.4,149.6,87,160.3,74.4z"/>
	<path class="st1" d="M105.6,93.1c3.2,4.9,6.5,9.9,9.4,15c-7.9-3-16.1-6.2-23.1-10.8C96.4,95.4,101,94.2,105.6,93.1z"/>
	<path class="st1" d="M83.3,101.3c12.7,4.1,25,11.5,37.6,16.9c-1.7,12.6-4.2,25.1-6.1,37.7c-17-2.4-35.9-7.8-46.1-22.7
		C60.7,121,71.5,106.1,83.3,101.3z"/>
	<path class="st1" d="M176.1,105c10.2,4.9,16.1,19.2,8.9,29c-6,8.4-15.3,13.9-25,17.1C168.9,137.2,173.6,121,176.1,105z"/>
	<path class="st1" d="M131.8,121.2c9.7,3.2,19.5,5.7,29.1,9c-0.2,7.8-6.3,14.3-10.1,20.8C144.2,141.3,137.4,131.5,131.8,121.2z"/>
	<path class="st1" d="M126.3,124.9c6.1,10,13.8,19.4,18.8,30c-7.9,1.9-16.1,1.1-24,1.1C122.2,145.5,124,135.1,126.3,124.9z"/>
	<path class="st1" d="M87.1,156.9c16.9,5.8,35.2,9,53.1,6.3c-7.1,10-20.7,16.7-33,16.9C95,179.3,88.8,167.4,87.1,156.9z"/>
</g>
</svg>
